!!!COM: Haydn, Franz Joseph
!!!OPR: String Quartet in D Major
!!!ONM: Opus 33, No. 6
!!!OTL: Affettuoso 
!!!OMV: 1
!!!SCT: H III:42
!!!SCA: Thematisch-bibliographisches Werkevererzeichnis (A. van Hoboken)
!!!YOR: Richault Edition, volume 8
!!!EED: Frances Bennion
!!!ENC: Frances Bennion
!!!CDT: 1732/3/31/-1809/5/31/
!!!OCY: Österreich
!!!YEC: Copyright (c) 1994, 2000 Center for Computer Assisted Research in the Humanities
!!!YEM: Rights to all derivative editions reserved.
!!!YEM: Refer to licensing agreement for further details.
!!!YEN: United States of America
**kern	**kern	**kern	**kern
*k[f#c#]	*k[f#c#]	*k[f#c#]	*k[f#c#]
*D:	*D:	*D:	*D:
*clefF	*clefF	*clefC3	*clefF4
*M6/8	*M6/8	*M6/8	*M6/8
*tb16	*tb16	*tb16	*tb16
=0-	=0-	=0-	=0-
2r	2r	2r	2r
8r	8r	8r	8r
8aa	8r	8r	8r
=1	=1	=1	=1
8aa	4f#	2r	2D
8ddd	.	.	.
8bb	8g	.	.
8aa	8f#	.	.
8r	8r	8r	4r
8aa	8a	8f#	.
=2	=2	=2	=2
8aa	2a	8f#	2r
8gg	.	8e	.
8ff#	.	8d	.
8ee	.	8c#	.
8r	4r	8r	8r
8gg	.	8d	8B
=3	=3	=3	=3
8gg	2r	2d	8B
8ff#	.	.	8A
8ee	.	.	8G
8dd	.	.	8F#
8r	8r	8r	4r
8dd	8dd	8f#	.
=4	=4	=4	=4
4ee	4dd	4g	2.r
8ff#	8cc#	8a	.
8dd	8dd	8d	.
8r	4r	4r	.
8aa	.	.	.
=5	=5	=5	=5
16aa	4f#	2r	2D
16bb	.	.	.
16ccc#	.	.	.
16ddd	.	.	.
16ccc#	8g	.	.
16bb	.	.	.
8aa	8f#	.	.
8r	8r	8r	4r
8aa	8a	8f#	.
=6	=6	=6	=6
8aa	2a	8f#	2r
8gg	.	8e	.
8ff#	.	8d	.
8ee	.	8c#	.
8r	4r	8r	8r
8gg	.	8d	8B
=7	=7	=7	=7
16gg	2r	2d	8B
16aa	.	.	.
16ff#	.	.	8A
16gg	.	.	.
16ee	.	.	8G
16ff#	.	.	.
8dd	.	.	8F#
8r	8r	8r	4r
8dd	8dd	8f#	.
=8	=8	=8	=8
4ee	4dd	4g	4.r
8ff#	8cc#	8a	.
8dd	8dd	4d	[4.d
8r	8r	.	.
8dd	8f#	8r	.
=9	=9	=9	=9
4ee	4g	2.r	2.d_
8ff#	8a	.	.
4dd	4f#	.	.
8ee	8g	.	.
=10	=10	=10	=10
4ff#	4a	2.r	2.d_
8gg	8b	.	.
4ee	4g	.	.
8ff#	8a	.	.
=11	=11	=11	=11
4gg	4.b	4.d	2.d_
8aa	.	.	.
8ff#	4.cc	4.a	.
8ee	.	.	.
8dd	.	.	.
=12	=12	=12	=12
4gg	4.b	4.g	2.d_
8aa	.	.	.
8ff#	4.cc	4.a	.
8ee	.	.	.
8dd	.	.	.
=13	=13	=13	=13
4gg	4.b	4.g	2.d]
8bb	.	.	.
8gg	4.cc#	4.e	.
8ff#	.	.	.
8gg	.	.	.
=14	=14	=14	=14
4ff#	8dd	4f#	4d
.	8d	.	.
8aa	8e	8e	8c#
8dd	4.f#	4d	4B
8cc#	.	.	.
8dd	.	8c#	8A
=15	=15	=15	=15
4ee	4b	4.B	4G
8gg	8g	.	8E
8cc#	8e	4.G	4.A
8b	8d	.	.
8cc#	8e	.	.
=16	=16	=16	=16
16ff#	8f#	4f#	4d
16aa	.	.	.
16gg	8d	.	.
16bb	.	.	.
8aa	8e	8e	8c#
8dd	4.f#	4d	4B
8cc#	.	.	.
8dd	.	8c#	8A
=17	=17	=17	=17
16ee	4b	4B	4G
16gg	.	.	.
16ff#	.	.	.
16aa	.	.	.
8gg	8g	8g	8E
8cc#	8e	4.g	4A
8b	8d	.	.
8cc#	8e	.	8AA
=18	=18	=18	=18
4dd	4f#	4f#	4D
8a	8a	8A	8AA
8f#	8f#	8F#	8FF#
8r	8r	4r	4r
8aa	8ff#	.	.
=19	=19	=19	=19
4gg	4ee	2r	2r
8ee	8cc#	.	.
8cc#	8g	.	.
4r	4r	8r	8r
.	.	8g	8c#
=20	=20	=20	=20
2r	2r	4f#	4d
.	.	8e	8A
.	.	8d	8F#
8r	8r	4r	4r
8aa	8ff#	.	.
=21	=21	=21	=21
8ff#	8dd#	2r	2r
8gg	8ee	.	.
8ee	8cc#	.	.
8cc#	8g	.	.
4r	4r	8r	8r
.	.	8g	8c#
=22	=22	=22	=22
2r	2.r	8e#	8c#
.	.	8f#	8d
.	.	8e	8A
.	.	8d	8F#
8r	.	4r	4r
8ddd	.	.	.
=23	=23	=23	=23
8aa#	[4.dd	2r	4G
8bb	.	.	.
8aa	.	.	8A
8ff#	4dd]	.	4B
8gg	.	8r	.
8dd#	8cc	8f#	8A
=24	=24	=24	=24
8ee	4b	4g	4G
8bb	.	.	.
8dd#	8cc	8f#	8A
8ee	4b	4g	4G
8bb	.	.	.
8dd#	8cc	8f#	8A
=25	=25	=25	=25
8ee	2b	4.g	2.G
8bb	.	.	.
8aa	.	.	.
8gg	.	8e	.
8ff#	8a	8f#	.
8ee	8g	8g	.
=26	=26	=26	=26
4.dd	4.f#	4.a	2.A
4cc#	4e	4A	.
8ee	8r	8r	.
=27	=27	=27	=27
16ee	4cc#	4e	4AA
16ff#	.	.	.
16gg#	.	.	.
16aa	.	.	.
16gg#	4.r	4.r	2r
16ff#	.	.	.
8ee	.	.	.
8aa	.	.	.
8ccc#	8a	8A	.
=28	=28	=28	=28
2ddd	16g#	16e	2r
.	16a	16f#	.
.	16b	16g#	.
.	16cc#	16a	.
.	16b	16g#	.
.	16a	16f#	.
.	8g#	8e	.
8bb	8b	8g#	8r
8gg#	8dd	8b	8E
=29	=29	=29	=29
4..aa	16cc#	4.a	16A
.	16dd	.	16B
.	16ee	.	16c#
.	16ff#	.	16d
.	16ee	.	16c#
.	16dd	.	16B
.	4cc#	16c#	4A
16bb	.	16d	.
16ccc#	.	16e	.
16ddd	.	16f#	.
16ccc#	8g#	16e	8E
16bb	.	16d	.
=30	=30	=30	=30
4.aa	16a	2.c#	16F#
.	16b	.	16G#
.	16cc#	.	16A
.	16dd	.	16B
.	16cc#	.	16A
.	16b	.	16G#
16aa	4a	.	4F#
16bb	.	.	.
16ccc#	.	.	.
16bb	.	.	.
16aa	8ee	.	8C#
16gg#	.	.	.
=31	=31	=31	=31
4.ff#	16ff#	4.A	16D
.	16gg#	.	16E
.	16aa	.	16F#
.	16gg#	.	16E
.	16ff#	.	16D
.	16ee	.	16C#
4.ddd	16dd	4.f#	16BB
.	16ee	.	16C#
.	16ff#	.	16D
.	16ee	.	16C#
.	16dd	.	16BB
.	16cc#	.	16AA
=32	=32	=32	=32
16ddd	16b	2.e	4.GG#
16eee	16cc#	.	.
16fff#	16dd	.	.
16eee	16cc#	.	.
8ddd	8b	.	.
16ccc#	16a	.	4.AA
16ddd	16b	.	.
16eee	16cc#	.	.
16ddd	16b	.	.
8ccc#	8a	.	.
=33	=33	=33	=33
16bb	2.f#	4.f#	4.D
16ccc#	.	.	.
16ddd	.	.	.
16ccc#	.	.	.
8bb	.	.	.
8bb	.	4.d#	4.D#
8ccc#	.	.	.
8aa	.	.	.
=34	=34	=34	=34
8ee	4e	4e	4E
8gg#	.	.	.
8bb	2r	2r	2r
8eee	.	.	.
8eee	.	.	.
8eee	.	.	.
=35	=35	=35	=35
2.eee	8e	2.r	2.r
.	8a	.	.
.	8cc#	.	.
.	8dd	.	.
.	8b	.	.
.	8g#	.	.
=36	=36	=36	=36
[2.eee	4.a	8e	2.r
.	.	8a	.
.	.	8cc#	.
.	4.b	8dd	.
.	.	8b	.
.	.	8g#	.
=37	=37	=37	=37
2.eee]	4.cc#	4.a	8E
.	.	.	8A
.	.	.	8c#
.	8g#	4.b	8d
.	8b	.	8B
.	8dd	.	8G#
=38	=38	=38	=38
8ee	4cc#	4.cc#	4.A
8aa	.	.	.
8ccc#	2r	.	.
8ddd	.	8g#	4.B
8bb	.	8b	.
8gg#	.	8dd	.
=39	=39	=39	=39
[2.eee	8e	4.cc#	2.c#
.	8g#	.	.
.	8a	.	.
.	8cc#	4.a	.
.	8ee	.	.
.	8aa	.	.
=40	=40	=40	=40
4.eee]	2ff#	8F#	8D
.	.	8A	8F#
.	.	8d	8A
[4.ddd	.	8f#	8d
.	8ee	8g#	8e
.	8dd	8a	8f#
=41	=41	=41	=41
8ddd]	2.ee	4.g#	4.e
8bb	.	.	.
8ddd	.	.	.
8ccc#	.	4.a	4.A
8aa	.	.	.
8ee	.	.	.
=42	=42	=42	=42
8dd	4.ff#	8f#	4.D
8ff#	.	8d	.
8bb	.	8B	.
8b	4.dd	8d	4.E
8dd	.	8B	.
8gg#	.	8G#	.
=43	=43	=43	=43
8a	4cc#	4A	4A
8cc#	.	.	.
8ee	2r	2r	2r
8aa	.	.	.
8ccc#	.	.	.
8eee	.	.	.
=44	=44	=44	=44
4.eee	8a#	4.r	4.F#
.	8cc#	.	.
.	8ee	.	.
4.ddd#	4f#	8f#	4.B
.	.	8a	.
.	8r	8dd#	.
=45	=45	=45	=45
4.ddd	8g#	4ee	4.E
.	8b	.	.
.	8dd	8r	.
4.ccc#	4e	8e	4.A
.	.	8a	.
.	8r	8cc#	.
=46	=46	=46	=46
8bb	4f#	4dd	4d
8ddd	.	.	.
8aa#	8g	2r	8e
8bb	4f#	.	4d
8ddd	.	.	.
8aa#	8g	.	8e
=47	=47	=47	=47
8bb	4f#	2.r	4d
8dd	.	.	.
8ff#	2r	.	2r
8aa#	.	.	.
8bb	.	.	.
8ddd	.	.	.
=48	=48	=48	=48
4.ee	4cc#	4.r	8E
.	.	.	8A
.	8a	.	8c#
4.bb	8g#	4.E	8d
.	8f#	.	8c#
.	8g#	.	8d
=49	=49	=49	=49
4aa	[2.a	4.A	4c#
8a	.	.	2r
8a	.	4.c#	.
8g#	.	.	.
8a	.	.	.
=50	=50	=50	=50
4b	4.a]	4.d	2.r
8b	.	.	.
8b	4.g#	4.e	.
8a	.	.	.
8b	.	.	.
=51	=51	=51	=51
4cc#	[2.a	4A	4.r
8a	.	2r	.
8a	.	.	4.c#
8g#	.	.	.
8a	.	.	.
=52	=52	=52	=52
4b	4.a]	2.r	4.d
8b	.	.	.
8b	[4.g	.	4.e
8a	.	.	.
8b	.	.	.
=53	=53	=53	=53
4cc#	4.g]	4.e	[2.A
8cc#	.	.	.
8dd	8f	8d	.
8cc#	8e	8e	.
8dd	8d	8f	.
=54	=54	=54	=54
4ee	4.c#	4.e	2.A]
8ee	.	.	.
8ff	8d	4.d	.
8ee	8e	.	.
8dd	8f	.	.
=55	=55	=55	=55
[2.aa	4e	4c#	4A
.	8c#	8e	8A
.	8d	4.d	8F
.	8e	.	8E
.	8f	.	8D
=56	=56	=56	=56
2.aa_	4e	4c#	4A
.	8c#	8e	8A
.	8d	4.d	8F
.	8e	.	8E
.	8f	.	8D
=57	=57	=57	=57
2.aa_	[2.e	[2.c#	[2.AA
=58	=58	=58	=58
4.aa_	4.e_	4.c#_	4.AA_
4aa]	4e]	4c#]	4AA]
8f	8f	8f	8F
=59	=59	=59	=59
4f	4f	4f	4F
8c	8c	8c	8C
8A	4A	8A	8AA
8r	.	4r	4r
8ccc	8aa	.	.
=60	=60	=60	=60
8ccc	8aa	2r	2r
8ddd	8bb-	.	.
8aa	8ff#	.	.
8bb-	8gg	.	.
8r	8r	8r	8r
8b-	8b-	8b-	8B-
=61	=61	=61	=61
4b-	4b-	4b-	4B-
8g	8g	8g	8G
8e	8e	8e	8E
8r	8r	4r	4r
8bb-	8gg	.	.
=62	=62	=62	=62
8bb-	8gg	2.r	2.r
8ccc	8aa	.	.
8gg	8ee	.	.
8aa	4ff	.	.
4r	.	.	.
.	8ff	.	.
=63	=63	=63	=63
2.r	4ff	2.r	4r
.	8cc	.	8e-
.	4.a	.	8e-
.	.	.	8f
.	.	.	8c
=64	=64	=64	=64
4r	4.b-	2r	8d
.	.	.	8f
8ff	.	.	8B-
8ff	4.cc	.	4.A
8gg	.	8r	.
8cc	.	8f	.
=65	=65	=65	=65
8dd	4.dd	4f	4.B-
8ff	.	.	.
8b-	.	8dd	.
4.ff#	4a	8cc	4.D
.	.	8ee-	.
.	8cc	8a	.
=66	=66	=66	=66
4.gg	4b-	8b-	4.G
.	.	8dd	.
.	8dd	8g	.
4.gg#	8dd	4b	4.E
.	8ff	.	.
.	8b	8dd	.
=67	=67	=67	=67
4aa	8cc	4cc	4.A
.	8ee	.	.
8ccc	8a	8a	.
8ccc	8a	4.d#	4.F
8bb	8b	.	.
8aa	8cc	.	.
=68	=68	=68	=68
[2.eee	4g#	4e	4E
.	8g#	8b	8E
.	8a	4.a	8C
.	8b	.	8BB
.	8cc	.	8AA
=69	=69	=69	=69
2.eee]	4b	4g#	4E
.	8g#	8b	8E
.	8a	4.a	8C
.	8b	.	8BB
.	8cc	.	8AA
=70	=70	=70	=70
[4.eee	[4.b	[4.g#	[4.E
4eee]	4b]	4g#]	4E]
8ee	8r	8r	8r
=71	=71	=71	=71
8ee	4cc#	2r	2AA
8aa	.	.	.
8ff#	8dd	.	.
8ee	8cc#	.	.
8r	8r	8r	4r
8ee	8e	8c#	.
=72	=72	=72	=72
8ee	[4.e	8c#	2r
8dd	.	8B	.
8cc#	.	8A	.
8b	4e]	8G#	.
8r	.	8r	8r
8dd	8r	8A	8F#
=73	=73	=73	=73
8dd	2r	2A	8F#
8cc#	.	.	8E
8b	.	.	8D
8a	.	.	8C#
8r	8r	8r	4r
8a	8a	8c#	.
=74	=74	=74	=74
4b	4a	4d	2r
8cc#	8g#	8e	.
8a	4a	4A	.
8aa	.	.	8r
8aa	8r	8a	8c#
=75	=75	=75	=75
[2.aa	2.r	4b	4d
.	.	8cc#	8e
.	.	4a	4c#
.	.	8b	8d
=76	=76	=76	=76
2.aa_	2.r	4cc#	4e
.	.	8dd	8f#
.	.	4b	4d
.	.	8cc#	8e
=77	=77	=77	=77
2.aa]	4r	4dd	4f#
.	8a	8ee	8g
.	8gg	4.cc#	8e
.	8ff#	.	8d
.	8gg	.	8e
=78	=78	=78	=78
16aa	16ff#	4dd	2d
16bb	16gg	.	.
16ccc#	16aa	.	.
16ddd	16bb	.	.
16ccc#	16aa	4.r	.
16bb	16gg	.	.
8aa	8ff#	.	.
8r	8r	.	4r
8aa	8a	8f#	.
=79	=79	=79	=79
8aa	4a	8f#	2r
8gg	.	8e	.
8ff#	8a	8d	.
8ee	4.r	8c#	.
8r	.	8r	8r
8gg	.	8d	8B
=80	=80	=80	=80
16gg	2r	[4.d	8B
16aa	.	.	.
16ff#	.	.	8A
16gg	.	.	.
16ee	.	.	8G
16ff#	.	.	.
8dd	.	4d]	8F#
8r	8r	.	4r
8dd	8dd	8f#	.
=81	=81	=81	=81
4ee	4dd	4g	4.r
8ff#	8cc#	8a	.
8dd	8dd	8d	4.d
8r	8r	4r	.
8dd	8f#	.	.
=82	=82	=82	=82
4ee	4g	2.r	[2.d
8ff#	8a	.	.
4dd	4f#	.	.
8ee	8g	.	.
=83	=83	=83	=83
4ff#	4a	2.r	2.d_
8gg	8b	.	.
4ee	4g	.	.
8ff#	8a	.	.
=84	=84	=84	=84
4gg	4.b	4.d	2.d_
8aa	.	.	.
8ff#	4.cc	4.a	.
8ee	.	.	.
8dd	.	.	.
=85	=85	=85	=85
4gg	4.b-	4.g	2.d]
8aa	.	.	.
8ff#	4.cc	4.a	.
8ee	.	.	.
8dd	.	.	.
=86	=86	=86	=86
4gg	[4.b-	4.g	4.e-
8aa-	.	.	.
8ff	4.b-]	4.a-	4.f
8ee-	.	.	.
8dd	.	.	.
=87	=87	=87	=87
4.ee-	4bb-	4.b-	4g
.	8ccc	.	2r
4.ff	8aa-	4.dd	.
.	8gg	.	.
.	8aa-	.	.
=88	=88	=88	=88
4gg	4gg	8ee-	4B-
.	.	8b-	.
8aa-	2r	8b-	8c
8ff	.	4.b-	8A-
8ee-	.	.	8G
8ff	.	.	8A-
=89	=89	=89	=89
4.ee-	4bb-	[2.b-	4G
.	8ccc	.	8A-
4.dd	8aa-	.	8F
.	8gg	.	8E-
.	8aa-	.	8F
=90	=90	=90	=90
4dd	2.gg	4.b-]	2.E-
8ee-	.	.	.
8cc	.	4.g	.
8b	.	.	.
8cc	.	.	.
=91	=91	=91	=91
4.cc	4ff	4.a-	4.D
.	8aa-	.	.
4.b	8ff	4.d	4.G
.	8ee	.	.
.	8ff	.	.
=92	=92	=92	=92
4b-	2.ee	4.e	2.c
8dd-	.	.	.
8b-	.	4.g	.
8a	.	.	.
8b-	.	.	.
=93	=93	=93	=93
2.b-	4ee	4g	2.c#
.	8gg	8b-	.
.	8ee	8g	.
.	8dd	8f	.
.	8ee	8g	.
=94	=94	=94	=94
4.a	4ee	4g	2.d
.	8ff	8a	.
4.aa	8dd	8f	.
.	8cc#	8e	.
.	8dd	8f	.
=95	=95	=95	=95
4bb-	4.dd	4.f	4.G
8ddd	.	.	.
8bb-	4.ee	4.g	4.C
8aa	.	.	.
8bb-	.	.	.
=96	=96	=96	=96
2.aa	4ee	4.a	2.F
.	8ff	.	.
.	8dd	4.A	.
.	8cc#	.	.
.	8dd	.	.
=97	=97	=97	=97
4.gg#	4dd	4.B	2.E
.	8ee	.	.
4.aa	8cc	4.c	.
.	8b	.	.
.	8cc	.	.
=98	=98	=98	=98
4.ff#	4cc	4.A	2.D
.	8dd	.	.
4.gg	8b	4.B	.
.	8a	.	.
.	8b	.	.
=99	=99	=99	=99
4gg	2.cc#	2.e	2.D
8bb	.	.	.
8gg	.	.	.
8ff#	.	.	.
8gg	.	.	.
=100	=100	=100	=100
4ff#	8dd	4f#	4d
.	8d	.	.
8aa	8e	8e	8c#
8dd	4.f#	4d	4B
8cc#	.	.	.
8dd	.	8c#	8A
=101	=101	=101	=101
4ee	4b	4.B	4G
8gg	8g	.	8E
8cc#	8e	4.G	4.A
8b	8d	.	.
8cc#	8e	.	.
=102	=102	=102	=102
16ff#	8f#	4f#	4d
16aa	.	.	.
16gg	8d	.	.
16bb	.	.	.
8aa	8e	8e	8c#
8dd	4.f#	4d	4B
8cc#	.	.	.
8dd	.	8c#	8A
=103	=103	=103	=103
16ee	4b	4B	4G
16gg	.	.	.
16ff#	.	.	.
16aa	.	.	.
8gg	8g	8g	8E
8cc#	8e	4.g	4A
8b	8d	.	.
8cc#	8e	.	8AA
=104	=104	=104	=104
4dd	4f#	4f#	4D
8a	8a	8A	8AA
8f#	8f#	8F#	8FF#
8r	8r	4r	4r
8aa	8ff#	.	.
=105	=105	=105	=105
4gg	4ee	2r	2r
8ee	8cc#	.	.
8cc#	8g	.	.
4r	4r	8r	8r
.	.	8g	8c#
=106	=106	=106	=106
2r	2r	4f#	4d
.	.	8e	8A
.	.	8d	8F#
8r	8r	4r	4r
8aa	8ff#	.	.
=107	=107	=107	=107
8ff#	8dd#	2r	2r
8gg	8ee	.	.
8ee	8cc#	.	.
8cc#	8g	.	.
4r	4r	8r	8r
.	.	8g	8c#
=108	=108	=108	=108
2r	2.r	8e#	8c#
.	.	8f#	8d
.	.	8e	8A
.	.	8d	8F#
8r	.	4r	4r
8ddd	.	.	.
=109	=109	=109	=109
8aa#	2r	2.r	2.r
8bb	.	.	.
8aa	.	.	.
8ff#	.	.	.
8gg	8r	.	.
8bb	8dd	.	.
=110	=110	=110	=110
8ff#	8a#	2.r	2r
8gg	8b	.	.
8ff#	8a	.	.
8dd#	8f#	.	.
8ee	8g	.	8r
8dd#	8f#	.	8B
=111	=111	=111	=111
4ee	4b	2.r	8F#
.	.	.	8G
8ff#	8a	.	8D#
4gg	4g	.	8D#
.	.	.	8E
8cc#	8e	.	8A
=112	=112	=112	=112
4dd	4a	2r	8E
.	.	.	8F#
8ee	8g	.	8C#
8ff#	4f#	.	8C#
8r	.	8r	8D
8dd	8r	8F#	8r
=113	=113	=113	=113
8a#	4r	4G	2.r
8b	.	.	.
4.r	8g	4.r	.
.	8d#	.	.
.	8e	.	.
8ee	8r	8G#	.
=114	=114	=114	=114
8cc	4r	4A	2.r
8cc#	.	.	.
4.r	8a	4.r	.
.	8e#	.	.
.	8f#	.	.
8ff#	8r	8A#	.
=115	=115	=115	=115
8cc#	2r	4B	2.r
8dd	.	.	.
8gg	.	8r	.
8dd#	.	4c#	.
8ee	8r	.	.
8aa	8e	8r	.
=116	=116	=116	=116
4.aa	16f#	16d	2r
.	16g	16e	.
.	16a	16f#	.
.	16b	16g	.
.	16a	16f#	.
.	16g	16e	.
16aa	8f#	8d	.
16bb	.	.	.
16ccc#	4r	4r	8r
16ddd	.	.	.
16eee	.	.	8D
16fff#	.	.	.
=117	=117	=117	=117
4..ggg	16cc#	2r	16A
.	16dd	.	16B
.	16ee	.	16c#
.	16ff#	.	16d
.	16ee	.	16c#
.	16dd	.	16B
.	8cc#	.	4A
16eee	.	.	.
16ccc#	8r	8r	.
16eee	.	.	.
16ccc#	8e	8A	8r
16eee	.	.	.
=118	=118	=118	=118
4.fff#	16f#	16d	4D
.	16g	16e	.
.	16a	16f#	.
.	16b	16g	.
.	16a	16f#	4.r
.	16g	16e	.
16aa	8f#	8d	.
16ddd	.	.	.
16fff#	4r	4r	.
16ddd	.	.	.
16fff#	.	.	8D
16ddd	.	.	.
=119	=119	=119	=119
4..ggg	16cc#	2r	16A
.	16dd	.	16B
.	16ee	.	16c#
.	16ff#	.	16d
.	16ee	.	16c#
.	16dd	.	16B
.	8cc#	.	4A
16eee	.	.	.
16ccc#	8r	8r	.
16eee	.	.	.
16ccc#	8ee	8A	8r
16eee	.	.	.
=120	=120	=120	=120
4.ddd	16ff#	16d	4D
.	16gg	16e	.
.	16aa	16f#	.
.	16gg	16e	.
.	16ff#	16d	2r
.	16ee	16c#	.
16ddd	4dd	16B	.
16eee	.	16c#	.
16fff#	.	16d	.
16eee	.	16c#	.
16ddd	8r	16B	.
16ccc#	.	16A	.
=121	=121	=121	=121
16bb	2.r	4G	16G
16ccc#	.	.	16A
16ddd	.	.	16B
16ccc#	.	.	16A
16bb	.	2r	16G
16aa	.	.	16F#
16gg	.	.	16E
16aa	.	.	16F#
16bb	.	.	16G
16aa	.	.	16F#
16gg	.	.	16E
16ff#	.	.	16D
=122	=122	=122	=122
16ee	2.r	2.r	16C#
16ff#	.	.	16D
16gg	.	.	16E
16ff#	.	.	16D
16ee	.	.	16C#
16dd	.	.	16BB
16cc#	.	.	16AA
16dd	.	.	16BB
16ee	.	.	16C#
16dd	.	.	16BB
16cc#	.	.	16AA
16b	.	.	16GG
=123	=123	=123	=123
8a	8a	4.d	4.FF#
8dd	8f#	.	.
8ff#	8d	.	.
8b	8b	4.G	4.GG
8ee	8g	.	.
8gg	8e	.	.
=124	=124	=124	=124
8ff#	8d	2.A	2.AA
8aa	8f#	.	.
8dd	8d	.	.
8gg	8e	.	.
8ee	8g	.	.
8cc#	8e	.	.
=125	=125	=125	=125
8dd	4d	4F#	4D
8f#	.	.	.
8a	2r	2r	2r
8dd	.	.	.
8ff#	.	.	.
8aa	.	.	.
=126	=126	=126	=126
[2.aa	8a	2.r	2.r
.	8dd	.	.
.	8ff#	.	.
.	8gg	.	.
.	8ee	.	.
.	8cc#	.	.
=127	=127	=127	=127
2.aa_	4.dd	8A	2.r
.	.	8d	.
.	.	8f#	.
.	4.ee	8g	.
.	.	8e	.
.	.	8c#	.
=128	=128	=128	=128
2.aa]	4.ff#	4.d	8AA
.	.	.	8D
.	.	.	8F#
.	8cc#	4.e	8G
.	8ee	.	8E
.	8gg	.	8C#
=129	=129	=129	=129
8a	4ff#	4.f#	4.D
8dd	.	.	.
8ff#	2r	.	.
8gg	.	8c#	4.E
8ee	.	8e	.
8cc#	.	8g	.
=130	=130	=130	=130
[2.aa	8a	4.f#	2.F#
.	8cc#	.	.
.	8dd	.	.
.	8ff#	4.d	.
.	8dd	.	.
.	8a	.	.
=131	=131	=131	=131
4.aa]	2b	8B	8GG
.	.	8d	8BB
.	.	8g	8D
4.gg	.	8b	8G
.	8a	8cc#	8A
.	8g	8dd	8B
=132	=132	=132	=132
8gg	2.a	4.cc#	4.A
8ee	.	.	.
8gg	.	.	.
8ff#	.	4.dd	4.D
8dd	.	.	.
8a	.	.	.
=133	=133	=133	=133
8g	4.b	8b	4.G
8b	.	8g	.
8ee	.	8e	.
8e	4.g	8g	4.A
8g	.	8e	.
8cc#	.	8c#	.
=134	=134	=134	=134
8d	4f#	4d	4D
8f#	.	.	.
8a	2r	2r	2r
8dd	.	.	.
8ff#	.	.	.
8aa	.	.	.
=135	=135	=135	=135
4.aa	8d#	4.r	4.BB
.	8f#	.	.
.	8a	.	.
4.gg#	4B	8B	4.E
.	.	8d	.
.	8r	8g#	.
=136	=136	=136	=136
4.gg	8c#	4a	4.AA
.	8e	.	.
.	8g	8r	.
4.ff#	4A	8A	4.D
.	.	8d	.
.	8r	8f#	.
=137	=137	=137	=137
8ee	4b	4g	4GG
8gg	.	.	.
8dd#	8cc	8a	2r
8ee	4b	4g	.
8bb	.	.	.
8cc#	8b-	8g	.
=138	=138	=138	=138
8dd	4a	4f#	2.r
8ff#	.	.	.
8cc#	8b-	8g	.
8dd	4a	4f#	.
8aa	.	.	.
8dd#	8a	8f#	.
=139	=139	=139	=139
8ee	4b	4g	2.r
8gg	.	.	.
8dd#	8cc	8a	.
8ee	4b	4g	.
8bb	.	.	.
8cc#	8b-	8g	.
=140	=140	=140	=140
8dd	4a	4f#	4.r
8ff#	.	.	.
8cc#	8b-	8g	.
8dd	4a	4f#	4.F#
8ff#	.	.	.
8aa	8r	8A	.
=141	=141	=141	=141
4.gg#	4.r	8B	4.E
.	.	8d	.
.	.	8g#	.
4.gg	8c#	4a	4.AA
.	8e	.	.
.	8g	8r	.
=142	=142	=142	=142
8ff#	4A	4.r	4.D
8aa	.	.	.
8ddd	2r	.	.
8bb	.	8dd	4.G
8gg	.	8b	.
8ee	.	8g	.
=143	=143	=143	=143
4.a	8d	4.f#	4.A
.	8f#	.	.
.	8a	.	.
4.ee	8e	4.g	4.AA
.	8g	.	.
.	8cc#	.	.
=144	=144	=144	=144
4dd	[2.dd	4.f#	4D
8dd	.	.	2r
8dd	.	4.f#	.
8cc#	.	.	.
8dd	.	.	.
=145	=145	=145	=145
4ee	4.dd]	4.g	2.r
8ee	.	.	.
8ee	4.cc#	4.a	.
8dd	.	.	.
8ee	.	.	.
=146	=146	=146	=146
4ff#	4.dd	4d	2.d
8dd	.	2r	.
8dd	4.f#	.	.
8cc#	.	.	.
8dd	.	.	.
=147	=147	=147	=147
4ee	4.g	4.r	4.c#
8ee	.	.	.
8ff#	4.a	4.d	4.c
8ee	.	.	.
8ff#	.	.	.
=148	=148	=148	=148
4gg	2.d	4.d	4.B
8gg#	.	.	.
8gg#	.	4f	4.B-
8ff#	.	.	.
8gg#	.	8d	.
=149	=149	=149	=149
[2.aa	4c#	4.e	4A
.	8c#	.	8A
.	8d	4.d	8F
.	8e	.	8E
.	8f	.	8D
=150	=150	=150	=150
2.aa_	4e	4c#	4A
.	8c#	8e	8A
.	8d	4.d	8F
.	8e	.	8E
.	8f	.	8D
=151	=151	=151	=151
2.aa_	[2.e	[2.c#	[2.AA
=152	=152	=152	=152
4.aa_	4.e_	4.c#_	4.AA_
4aa]	4e]	4c#]	4AA]
8r	8r	8r	8r
=153	=153	=153	=153
4aa	4.c#	4.e	4.A
8ccc#	.	.	.
8ccc#	4.ee	4.a	4.G
8bb	.	.	.
8ccc#	.	.	.
=154	=154	=154	=154
4.ddd	4ff#	4.a	8F#
.	.	.	8A
.	8dd	.	8d
4.bb	4bb	4.d	8G
.	.	.	8B
.	8g	.	8d
=155	=155	=155	=155
8aa	8f#	4.d	4.A
8ff#	8a	.	.
8aa	8f#	.	.
8gg	8e	4.A	4.AA
8ee	8g	.	.
8cc#	8e	.	.
=156	=156	=156	=156
4dd	4d	4d	4D
4.r	4.r	2r	2r
8aa	8ff#	.	.
=157	=157	=157	=157
4gg	4ee	2r	2r
8ee	8cc#	.	.
8cc#	8g	.	.
4r	4r	8r	8r
.	.	8g	8c#
=158	=158	=158	=158
2r	2r	4f#	4d
.	.	8e	8A
.	.	8d	8F#
8r	8r	4r	4r
8aa	8ff#	.	.
=159	=159	=159	=159
8ff#	8dd#	2r	2r
8gg	8ee	.	.
8ee	8cc#	.	.
8cc#	8g	.	.
4r	4r	8r	8r
.	.	8g	8c#
=160	=160	=160	=160
2r	2.r	8e#	8c#
.	.	8f#	8d
.	.	8e	8A
.	.	8d	8F#
8r	.	4r	4r
8ddd	.	.	.
=161	=161	=161	=161
8aa#	4d	2.r	4G
8bb	.	.	.
8dd#	2r	.	2r
8ee	.	.	.
8ff#	.	.	.
8gg	.	.	.
=162	=162	=162	=162
4.a	8f#	8d	4.A
.	8a	8f#	.
.	8f#	8d	.
4.ee	8g	8c#	4.AA
.	8e	8e	.
.	8c#	8g	.
=163	=163	=163	=163
4dd	4d	4f#	[2.DD
4.r	2r	4.r	.
8dd	.	8B	.
=164	=164	=164	=164
8cc	2.r	4A	2.DD_
8dd	.	.	.
8b	.	8G	.
4a	.	4.F#	.
8cc	.	.	.
=165	=165	=165	=165
4a#	2r	4G	2.DD_
8b	.	8A	.
4g	.	4B	.
.	8r	.	.
8b	8d	8G	.
=166	=166	=166	=166
8b	2.c#	[2.G	2.DD_
8g	.	.	.
8e	.	.	.
8g	.	.	.
8e	.	.	.
8c#	.	.	.
=167	=167	=167	=167
2.c#	2.e	2.G]	2.DD_
=168	=168	=168	=168
4d	4d	4F#	4DD]
2r	2r	2r	2r
==	==	==	==
*-	*-	*-	*-
!!!RWG1: This file contains only pitch and duration data.
!!!RWG2: Transposing instruments are not transposed.
!!!RWG3: Spines may have incompatible meters.
!!!RWG4: Durations of rests and tied notes may be interpreted.
!!!RWG: Key is interpreted using the Humdrum key tool.
!!!GTL: 6 Quators ("Jungfernquartette")
!!!AFT: stage1
!!!END: 1997/04/15
!!format changes:
!!content changes:
!!public access: complete
!!!KEY: 1212395213
!!!EMD: Converted from MuseData to Humdrum Dec 16, 2000, by Andreas Kornstaedt using muse2kern.
